Yaru++/apps/16/xterm.svg

<svg id="svg51" enable-background="new" height="16" viewBox="0 0 16 16" width="16" xmlns="http://www.w3.org/2000/svg">
  <g fill="#808080">
    <path id="path72" d="m20 16v20.363281h25.455078l3.935547 5.058594h30.318359l-3.708984-5.058594c-1.161034-.000003 30.54492 0 30.54492 0v-20.363281zm137.45508 0v20.363281h25.45312l-3.37304 5.058594h20.64648l3.0918-5.058594h30.54492v-20.363281zm-66.419924 40.867188c-8.993864.726473-17.130559 2.805611-24.65039 6.40625l42.294924 54.380862v-36.728519zm77.554684.974609-23.15039 34.724609v73.107424l20.36719 33.94336 11.07813.68945v13.23828h-2.72071l3.6543 6.0918h-25.45508c-.66123 6.78787 0 20.36328 0 20.36328h81.45508v-20.36328h-25.45508l-61.08984-91.63672 39.2539-64.234375c-5.69219-2.768798-11.68-4.752686-17.9375-5.923828zm-59.91015 80.503903-63.224612 81.29102h-25.455078v20.36328h81.45508v-20.36328h-25.45508l4.466797-6.0918h-3.232422v-13.23828l13.558594-.84375 17.886721-24.38867z" transform="matrix(.07142856833 0 0 .07142856994 -1.12852060749 -1.14285726572)"/>
    <path id="path860" d="m1.59506 1.9262155-1.29506 3.22882.921554.27063.05119-.0729c1.261557-1.79562 2.698503-2.56546 4.644403-2.56546.343931 0 .547526.0444.659818.12679.112294.0824.167655.22215.167655.4716v8.0040495c0 .70012-.08581 1.14758-.279895 1.41204-.194012.26436-.4902.3736-1.010468.40726l-.955681.0594v.73162h6.897179v-.73162l-.955681-.0594c-.520267-.0337-.816456-.1429-1.010469-.40726-.194079-.26446-.279894-.71192-.279894-1.41204v-7.9343995c0-.29761.04759-.46192.142923-.54517.09533-.0833.274571-.12287.619743-.12287 1.852074 0 3.449644.87721 4.644559 2.56572l.05041.0712.965386-.26721-1.272989-3.23072h-.0897z"/>
  </g>
</svg>

<?xml version="1.0" encoding="UTF-8" standalone="no"?>
<svg
   xmlns:dc="http://purl.org/dc/elements/1.1/"
   xmlns:cc="http://creativecommons.org/ns#"
   xmlns:rdf="http://www.w3.org/1999/02/22-rdf-syntax-ns#"
   xmlns:svg="http://www.w3.org/2000/svg"
   xmlns="http://www.w3.org/2000/svg"
   xmlns:xlink="http://www.w3.org/1999/xlink"
   xmlns:sodipodi="http://sodipodi.sourceforge.net/DTD/sodipodi-0.dtd"
   xmlns:inkscape="http://www.inkscape.org/namespaces/inkscape"
   style="enable-background:new"
   width="16"
   height="16"
   version="1.0"
   viewBox="0 0 16 16"
   id="svg51"
   sodipodi:docname="xterm.svg"
   inkscape:version="0.92.4 (5da689c313, 2019-01-14)">
  <metadata
     id="metadata55">
    <rdf:RDF>
      <cc:Work
         rdf:about="">
        <dc:format>image/svg+xml</dc:format>
        <dc:type
           rdf:resource="http://purl.org/dc/dcmitype/StillImage" />
        <dc:title>
  Adwaita Icon Template
 </dc:title>
      </cc:Work>
    </rdf:RDF>
  </metadata>
  <sodipodi:namedview
     pagecolor="#ffffff"
     bordercolor="#666666"
     borderopacity="1"
     objecttolerance="10"
     gridtolerance="10"
     guidetolerance="10"
     inkscape:pageopacity="0"
     inkscape:pageshadow="2"
     inkscape:window-width="1920"
     inkscape:window-height="1016"
     id="namedview53"
     showgrid="true"
     inkscape:zoom="52.437501"
     inkscape:cx="7.636395"
     inkscape:cy="5.7115612"
     inkscape:window-x="0"
     inkscape:window-y="27"
     inkscape:window-maximized="1"
     inkscape:current-layer="svg51">
    <inkscape:grid
       type="xygrid"
       id="grid471" />
  </sodipodi:namedview>
  <title
     id="title4162">
  Adwaita Icon Template
 </title>
  <defs
     id="defs27">
    <linearGradient
       id="linearGradient1115">
      <stop
         id="stop1103"
         offset="0"
         style="stop-color:#d5d3cf" />
      <stop
         style="stop-color:#e3e2df"
         id="stop1105"
         offset=".038" />
      <stop
         style="stop-color:#c0bfbc"
         id="stop1107"
         offset=".077" />
      <stop
         style="stop-color:#c0bfbc"
         id="stop1109"
         offset=".923" />
      <stop
         style="stop-color:#e3e2df"
         id="stop1111"
         offset=".962" />
      <stop
         id="stop1113"
         offset="1"
         style="stop-color:#d5d3cf" />
    </linearGradient>
    <linearGradient
       id="linearGradient6058">
      <stop
         style="stop-color:#ffffff"
         id="stop6054"
         offset="0" />
      <stop
         style="stop-color:#f6f5f4"
         id="stop6056"
         offset="1" />
    </linearGradient>
    <linearGradient
       id="paint3_linear-2-6-5"
       x2="1"
       gradientTransform="matrix(0,6,-12,0,-64,209.99687)"
       gradientUnits="userSpaceOnUse">
      <stop
         id="stop91-0-7-4"
         stop-color="#C01C27" />
      <stop
         id="stop93-2-5-7"
         offset="1"
         stop-color="#E01B24" />
    </linearGradient>
    <linearGradient
       id="linearGradient1097"
       x1="43.844002"
       x2="-60"
       y1="234"
       y2="234"
       gradientTransform="matrix(1.0015061,0,0,0.99993452,72.09037,56.015192)"
       gradientUnits="userSpaceOnUse"
       xlink:href="#linearGradient1115" />
    <radialGradient
       id="radialGradient1099"
       cx="-24.239"
       cy="225.59599"
       r="24"
       fx="-24.239"
       fy="225.59599"
       gradientTransform="matrix(1.757743,-9.5621778e-8,3.7652438e-8,1.9495846,106.60563,-336.54495)"
       gradientUnits="userSpaceOnUse"
       xlink:href="#linearGradient6058" />
    <linearGradient
       id="linearGradient1383"
       x2="1"
       gradientTransform="matrix(0,6,-12,0,-264,209.99687)"
       gradientUnits="userSpaceOnUse"
       xlink:href="#paint3_linear-2-6-5" />
    <linearGradient
       id="linearGradient4358"
       x1="88"
       x2="488"
       y1="88"
       y2="488"
       gradientUnits="userSpaceOnUse"
       xlink:href="#linearGradient4360" />
    <linearGradient
       id="linearGradient4360">
      <stop
         id="stop4362"
         offset="0"
         style="stop-color:#000000;stop-opacity:0.58823532" />
      <stop
         id="stop4366"
         offset="1"
         style="stop-color:#000000;stop-opacity:0.20555556" />
    </linearGradient>
    <filter
       style="color-interpolation-filters:sRGB"
       id="filter4380"
       width="1.1059999"
       height="1.0880001"
       x="-0.050000001"
       y="-0.039999999">
      <feGaussianBlur
         id="feGaussianBlur4382"
         stdDeviation="8.48" />
    </filter>
    <filter
       style="color-interpolation-filters:sRGB"
       id="filter4346"
       width="1.026"
       height="1.022"
       x="-0.0099999998"
       y="-0.0099999998">
      <feGaussianBlur
         id="feGaussianBlur4348"
         stdDeviation="2.12" />
    </filter>
  </defs>
  <g
     aria-label="X"
     transform="matrix(0.07400099,0,0,0.07147547,-0.78337,-1.2969245)"
     style="font-style:normal;font-variant:normal;font-weight:normal;font-stretch:normal;font-size:61.28281784px;line-height:0%;font-family:'DejaVu Serif';-inkscape-font-specification:'DejaVu Serif';text-align:start;writing-mode:lr-tb;text-anchor:start;display:inline;fill:#808080;fill-opacity:1;stroke:#ff0000;stroke-width:6.12828159;stroke-linecap:butt;stroke-linejoin:miter;stroke-miterlimit:4;stroke-dasharray:none;stroke-opacity:1"
     id="text2393">
    <path
       style="color:#000000;font-style:normal;font-variant:normal;font-weight:normal;font-stretch:normal;font-size:305.37686157px;line-height:1.25;font-family:'DejaVu Serif';-inkscape-font-specification:'DejaVu Serif';font-variant-ligatures:normal;font-variant-position:normal;font-variant-caps:normal;font-variant-numeric:normal;font-variant-alternates:normal;font-feature-settings:normal;text-indent:0;text-align:start;text-decoration:none;text-decoration-line:none;text-decoration-style:solid;text-decoration-color:#000000;letter-spacing:normal;word-spacing:normal;text-transform:none;writing-mode:lr-tb;direction:ltr;text-orientation:mixed;dominant-baseline:auto;baseline-shift:baseline;text-anchor:start;white-space:normal;shape-padding:0;clip-rule:nonzero;display:inline;overflow:visible;visibility:visible;opacity:1;isolation:auto;mix-blend-mode:normal;color-interpolation:sRGB;color-interpolation-filters:linearRGB;solid-color:#000000;solid-opacity:1;vector-effect:none;fill:#808080;fill-opacity:1;fill-rule:nonzero;stroke:none;stroke-width:6.23970461;stroke-linecap:butt;stroke-linejoin:miter;stroke-miterlimit:4;stroke-dasharray:none;stroke-dashoffset:0;stroke-opacity:1;color-rendering:auto;image-rendering:auto;shape-rendering:auto;text-rendering:auto;enable-background:accumulate"
       d="m 20,16 v 20.363281 h 25.455078 l 3.935547,5.058594 H 79.708984 L 76,36.363281 c -1.161034,-3e-6 30.54492,0 30.54492,0 V 16 Z m 137.45508,0 v 20.363281 h 25.45312 l -3.37304,5.058594 h 20.64648 l 3.0918,-5.058594 h 30.54492 V 16 Z M 91.035156,56.867188 c -8.993864,0.726473 -17.130559,2.805611 -24.65039,6.40625 L 108.67969,117.6543 V 80.925781 Z m 77.554684,0.974609 -23.15039,34.724609 v 73.107424 l 20.36719,33.94336 11.07813,0.68945 v 13.23828 h -2.72071 l 3.6543,6.0918 h -25.45508 c -0.66123,6.78787 0,20.36328 0,20.36328 h 81.45508 V 219.63672 H 208.36328 L 147.27344,128 186.52734,63.765625 c -5.69219,-2.768798 -11.68,-4.752686 -17.9375,-5.923828 z M 108.67969,138.3457 45.455078,219.63672 H 20 V 240 h 81.45508 V 219.63672 H 76 l 4.466797,-6.0918 h -3.232422 v -13.23828 l 13.558594,-0.84375 17.886721,-24.38867 z"
       transform="matrix(0.96523801,0,0,0.99934383,-4.6641353,2.1555331)"
       id="path72"
       inkscape:connector-curvature="0" />
  </g>
  <g
     aria-label="T"
     transform="matrix(0.08014879,0,0,0.06471796,-1.206741,-0.81463453)"
     style="font-style:normal;font-variant:normal;font-weight:normal;font-stretch:normal;font-size:61.28281784px;line-height:0%;font-family:'URW Bookman L';-inkscape-font-specification:'URW Bookman L';text-align:start;writing-mode:lr-tb;text-anchor:start;fill:#808080;fill-opacity:1;stroke:#00a2ff;stroke-width:3.06414104;stroke-linecap:butt;stroke-linejoin:miter;stroke-miterlimit:4;stroke-dasharray:none;stroke-opacity:1"
     id="text3153" />
  <g
     aria-label="X"
     transform="matrix(0.07400099,0,0,0.07147547,-0.78337,-1.1514645)"
     style="font-style:normal;font-variant:normal;font-weight:normal;font-stretch:normal;font-size:61.28281784px;line-height:0%;font-family:'DejaVu Serif';-inkscape-font-specification:'DejaVu Serif';text-align:start;writing-mode:lr-tb;text-anchor:start;display:inline;fill:#808080;fill-opacity:1;stroke:#ff0000;stroke-width:6.12828159;stroke-linecap:butt;stroke-linejoin:miter;stroke-miterlimit:4;stroke-dasharray:none;stroke-opacity:1"
     id="g42" />
  <g
     aria-label="X"
     transform="matrix(0.07400099,0,0,0.07147547,-0.78337,-1.4423745)"
     style="font-style:normal;font-variant:normal;font-weight:normal;font-stretch:normal;font-size:61.28281784px;line-height:0%;font-family:'DejaVu Serif';-inkscape-font-specification:'DejaVu Serif';text-align:start;writing-mode:lr-tb;text-anchor:start;display:inline;fill:#808080;fill-opacity:1;stroke:#ff0000;stroke-width:6.12828159;stroke-linecap:butt;stroke-linejoin:miter;stroke-miterlimit:4;stroke-dasharray:none;stroke-opacity:1"
     id="g4561" />
  <g
     id="g4591"
     style="font-style:normal;font-variant:normal;font-weight:normal;font-stretch:normal;font-size:61.28281784px;line-height:0%;font-family:'DejaVu Serif';-inkscape-font-specification:'DejaVu Serif';text-align:start;writing-mode:lr-tb;text-anchor:start;display:inline;fill:#808080;fill-opacity:1;stroke:#ff0000;stroke-width:6.12828159;stroke-linecap:butt;stroke-linejoin:miter;stroke-miterlimit:4;stroke-dasharray:none;stroke-opacity:1"
     transform="matrix(0.07267955,0,0,0.07019913,-1.478309,-0.55947453)"
     aria-label="X" />
  <path
     sodipodi:nodetypes="ccccssssscccccccsssscccccc"
     inkscape:connector-curvature="0"
     id="path860"
     d="M 1.59506,1.9262155 0.3,5.1550355 l 0.921554,0.27063 0.05119,-0.0729 c 1.261557,-1.79562 2.698503,-2.56546 4.644403,-2.56546 0.343931,0 0.547526,0.0444 0.659818,0.12679 0.112294,0.0824 0.167655,0.22215 0.167655,0.4716 v 8.0040495 c 0,0.70012 -0.08581,1.14758 -0.279895,1.41204 -0.194012,0.26436 -0.4902,0.3736 -1.010468,0.40726 l -0.955681,0.0594 v 0.73162 h 6.897179 v -0.73162 l -0.955681,-0.0594 c -0.520267,-0.0337 -0.816456,-0.1429 -1.010469,-0.40726 -0.194079,-0.26446 -0.279894,-0.71192 -0.279894,-1.41204 V 3.4553455 c 0,-0.29761 0.04759,-0.46192 0.142923,-0.54517 0.09533,-0.0833 0.274571,-0.12287 0.619743,-0.12287 1.852074,0 3.449644,0.87721 4.644559,2.56572 l 0.05041,0.0712 0.965386,-0.26721 -1.272989,-3.23072 h -0.0897 z"
     style="color:#000000;font-style:normal;font-variant:normal;font-weight:normal;font-stretch:normal;font-size:269.44873047px;line-height:1.25;font-family:'URW Bookman L';-inkscape-font-specification:'URW Bookman L';font-variant-ligatures:normal;font-variant-position:normal;font-variant-caps:normal;font-variant-numeric:normal;font-variant-alternates:normal;font-feature-settings:normal;text-indent:0;text-align:start;text-decoration:none;text-decoration-line:none;text-decoration-style:solid;text-decoration-color:#000000;letter-spacing:normal;word-spacing:normal;text-transform:none;writing-mode:lr-tb;direction:ltr;text-orientation:mixed;dominant-baseline:auto;baseline-shift:baseline;text-anchor:start;white-space:normal;shape-padding:0;clip-rule:nonzero;display:inline;overflow:visible;visibility:visible;opacity:1;isolation:auto;mix-blend-mode:normal;color-interpolation:sRGB;color-interpolation-filters:linearRGB;solid-color:#000000;solid-opacity:1;vector-effect:none;fill:#808080;fill-opacity:1;fill-rule:nonzero;stroke:none;stroke-width:0.22068338;stroke-linecap:butt;stroke-linejoin:miter;stroke-miterlimit:4;stroke-dasharray:none;stroke-dashoffset:0;stroke-opacity:1;color-rendering:auto;image-rendering:auto;shape-rendering:auto;text-rendering:auto;enable-background:accumulate" />
</svg>
